!!!OTL: Waise und Stiefmutter Ein armes Maedchen war,
!!!ARE: Europa, Mitteleuropa, Deutschland (BRD), Hessen, Nassau, Steinperf
!!!YOR: 5, S. 299
!!    1922 aufgezeichnet
!!!SCT: Q0116B
!!!YEM: Copyright 1995, estate of Helmut Schaffrath.
**kern
*ICvox
*Ivox
*M6/8
*k[f#]
*G:
{8d
=1
4g
8f#
4e
8d
=2
[4.c
4c]}
{8d
=3
4f#
8e
4d
8c
=4
[4.B
4B]}
{8d
=5
4b
8b
4a
8b
=6
[4.cc
4cc]}
{8e
=7
4d
8a
4a
8b
=8
[4.g
4g]}
==
!!!AGN: Ballade, Waise, boese Stiefmutter, Klage am Grab, Geist
!!!ONB: ESAC (Essen Associative Code) Database: BALLADE
!!!AMT: compound duple
!!!AIN: vox
!!!EED: Helmut Schaffrath
!!!EEV: 1.0
*-
